Origami/32x32/apps/chrome-store.svg

<svg width="32" height="32" version="1" xmlns="http://www.w3.org/2000/svg">
 <path d="m12 3-2 2v3h-8v18.5c0 0.831 0.669 1.5 1.5 1.5h25c0.831 0 1.5-0.669 1.5-1.5v-18.5h-8v-3l-2-2zm0 2h8v3h-8z" fill="#ccc"/>
 <path d="m12 5v1h8v-1h-8zm-10 21.5v1c0 0.831 0.669 1.5 1.5 1.5h25c0.831 0 1.5-0.669 1.5-1.5v-1c0 0.831-0.669 1.5-1.5 1.5h-25c-0.831 0-1.5-0.669-1.5-1.5z" opacity=".2"/>
 <path d="m15.978516 14v0.001953c-4.903757 0-9.1903598 2.514503-11.683594 6.318359l4.4355469 7.679688h0.9589843c-1.8e-6 -0.001985 0-0.003874 0-0.005859 0-3.488175 2.8260659-4.510563 6.2890629-4.898438l12.49414-1.400391c-2.293547-4.574906-7.013999-7.695312-12.49414-7.695312z" style="fill:#dd4d3e"/>
 <path d="M 4.3007812 20.351562 C 3.0104557 22.313985 2.2469709 24.566742 2.0566406 26.888672 C 2.2279778 27.528639 2.804525 28 3.5 28 L 8.7109375 28 L 4.3007812 20.351562 z" style="fill:#109f5b"/>
 <path d="m28.126953 20.986328l-12.126953 0.015625c1.013517 0.0274 2.221072 0.996031 3.164062 1.541016 2.024382 1.169968 3.146894 3.281893 3.144532 5.457031h6.191406c0.701816 0 1.281948-0.479976 1.447266-1.128906-0.1477-1.797871-0.635702-3.554984-1.447266-5.167969l-0.373047-0.716797z" style="fill:#ffce41"/>
 <path d="m16 21c-3.878 0-7 3.122-7 7h14c0-3.878-3.122-7-7-7z" style="fill:#ffffff"/>
 <path d="m16 22c-3.324 0-6 2.676-6 6h12c0-3.324-2.676-6-6-6z" style="fill:#4587f3"/>
</svg>

<svg xmlns="http://www.w3.org/2000/svg" width="32" height="32" version="1">
 <path fill="#ccc" d="m12 3-2 2v3h-8v18.5c0 0.831 0.669 1.5 1.5 1.5h25c0.831 0 1.5-0.669 1.5-1.5v-18.5h-8v-3l-2-2zm0 2h8v3h-8z"/>
 <path opacity=".2" d="m12 5v1h8v-1h-8zm-10 21.5v1c0 0.831 0.669 1.5 1.5 1.5h25c0.831 0 1.5-0.669 1.5-1.5v-1c0 0.831-0.669 1.5-1.5 1.5h-25c-0.831 0-1.5-0.669-1.5-1.5z"/>
 <path style="fill:#dd4d3e" d="M 15.978516 14 L 15.978516 14.001953 C 11.074759 14.001953 6.7881562 16.516456 4.2949219 20.320312 L 8.7304688 28 L 9.6894531 28 C 9.6894513 27.998015 9.6894531 27.996126 9.6894531 27.994141 C 9.6894531 24.505966 12.515519 23.483578 15.978516 23.095703 L 28.472656 21.695312 C 26.179109 17.120406 21.458657 14 15.978516 14 z"/>
 <path style="fill:#109f5b" d="M 4.3007812 20.351562 C 3.0104557 22.313985 2.2469709 24.566742 2.0566406 26.888672 C 2.2279778 27.528639 2.804525 28 3.5 28 L 8.7109375 28 L 4.3007812 20.351562 z"/>
 <path style="fill:#ffce41" d="M 28.126953 20.986328 L 16 21.001953 C 17.013517 21.029353 18.221072 21.997984 19.164062 22.542969 C 21.188444 23.712937 22.310956 25.824862 22.308594 28 L 28.5 28 C 29.201816 28 29.781948 27.520024 29.947266 26.871094 C 29.799566 25.073223 29.311564 23.31611 28.5 21.703125 L 28.126953 20.986328 z"/>
 <path style="fill:#ffffff" d="M 16 21 C 12.122 21 9 24.122 9 28 L 23 28 C 23 24.122 19.878 21 16 21 z"/>
 <path style="fill:#4587f3" d="M 16 22 C 12.676 22 10 24.676 10 28 L 22 28 C 22 24.676 19.324 22 16 22 z"/>
</svg>
